images/logo-france-travail.svg

<svg xmlns="http://www.w3.org/2000/svg" xml:space="preserve" id="logo" x="0px" y="0px" version="1.1" viewBox="0 0 117 46"><style>.st0{fill:#283276}.st1{fill:#f29fc5}.st2{fill:#008ecf}.st4{fill:#ffe000}</style><path d="M40.9 32.6c0 2.1-1.7 3.9-3.9 3.9-2.1 0-3.9-1.7-3.9-3.9 0-2.1 1.7-3.9 3.9-3.9 2.2.1 3.9 1.8 3.9 3.9" class="st0"/><path d="M15.5 18.2c0 2.1-1.7 3.9-3.9 3.9s-3.9-1.7-3.9-3.9c0-2.1 1.7-3.9 3.9-3.9s3.9 1.8 3.9 3.9" class="st1"/><path d="M33.7 28.4c0 2.1-1.7 3.9-3.9 3.9S26 30.5 26 28.4s1.7-3.9 3.9-3.9 3.8 1.8 3.8 3.9" class="st2"/><path d="M24.3 33.1c0 2.1-1.7 3.9-3.9 3.9s-3.9-1.7-3.9-3.9c0-2.1 1.7-3.9 3.9-3.9s3.9 1.7 3.9 3.9" class="st1"/><path d="M24.3 42.1c0 2.1-1.7 3.9-3.9 3.9-2.1 0-3.9-1.7-3.9-3.9 0-2.1 1.7-3.9 3.9-3.9 2.2.1 3.9 1.8 3.9 3.9m16.6-28.7c0 2.1-1.7 3.9-3.9 3.9-2.1 0-3.9-1.7-3.9-3.9 0-2.1 1.7-3.9 3.9-3.9 2.2.1 3.9 1.8 3.9 3.9m-7.2 4.8c0 2.1-1.7 3.9-3.9 3.9S26 20.4 26 18.2c0-2.1 1.7-3.9 3.9-3.9s3.8 1.8 3.8 3.9M15 28.7c0 2.1-1.7 3.9-3.9 3.9s-3.9-1.7-3.9-3.9c0-2.1 1.7-3.9 3.9-3.9s3.9 1.8 3.9 3.9M7.6 12.6c.5 2.1-.8 4.1-2.9 4.6S.6 16.4.1 14.3c-.4-2.1.9-4.2 2.9-4.6 2.1-.5 4.2.8 4.6 2.9" class="st0"/><path d="M7.3 20.9c-.2 1.2-1.3 2-2.5 1.9-1.2-.2-2-1.3-1.9-2.5.2-1.2 1.3-2 2.5-1.9 1.2.2 2 1.3 1.9 2.5m22.1 15.9c-.2 1.4-1.5 2.3-2.9 2.1s-2.3-1.5-2.1-2.9 1.5-2.3 2.9-2.1c1.3.2 2.2 1.5 2.1 2.9m7.4-16c-.1.8-.9 1.4-1.7 1.3s-1.4-.9-1.3-1.7.9-1.4 1.7-1.3c.9.1 1.4.9 1.3 1.7m-15-7.1c-.2 1.2-1.3 2-2.5 1.9-1.2-.2-2-1.3-1.9-2.5.2-1.2 1.3-2 2.5-1.9 1.3.2 2.1 1.3 1.9 2.5" style="fill:#e1000f"/><path d="M28.1 10.8c-.2 1.2-1.3 2-2.5 1.9-1.2-.2-2-1.3-1.9-2.5.2-1.2 1.3-2 2.5-1.9 1.3.2 2.1 1.3 1.9 2.5" class="st1"/><path d="M13.9 34.9c-.2 1.2-1.3 2-2.5 1.9-1.2-.2-2-1.3-1.9-2.5.2-1.2 1.3-2 2.5-1.9 1.2.2 2 1.4 1.9 2.5m21.5-9.8c-.2 1.2-1.3 2-2.5 1.9-1.2-.2-2-1.3-1.9-2.5.2-1.2 1.3-2 2.5-1.9 1.3.2 2.1 1.3 1.9 2.5" class="st4"/><path d="M32.9 35.3c.6 1 .3 2.4-.7 3s-2.4.3-3-.7-.3-2.4.7-3c1-.7 2.4-.3 3 .7" class="st0"/><path d="M16.2 9.5c-.2 1.2-1.3 2-2.5 1.9-1.2-.2-2-1.3-1.9-2.5.2-1.2 1.3-2 2.5-1.9 1.2.2 2 1.3 1.9 2.5" class="st4"/><path d="M24.5 4c0 2.2-1.8 4-4 4s-4-1.8-4-4 1.8-4 4-4 4 1.8 4 4M7.7 32.6c0 2.1-1.7 3.9-3.9 3.9S0 34.7 0 32.6s1.7-3.9 3.9-3.9 3.8 1.8 3.8 3.9m19-10.4a6.7 6.7 0 1 1-13.4 0 6.7 6.7 0 0 1 13.4 0" class="st2"/><path d="M50 8.9h6.8v1.7H52v3.5h4.1v1.7H52v5.3h-2zm8.4 3.5h1.8v1c.6-.7 1.4-1.2 2.5-1.2.3 0 .5.1.8.1v1.8c-.3-.1-.6-.1-.9-.1-1.1 0-1.8.6-2.3 1.3v5.9h-1.8v-8.8zm6 6.5c0-1.3 1-2.3 2.9-2.6l2.8-.5v-.5c0-1.1-.8-1.7-1.9-1.7-1 0-1.7.4-2.2 1.1l-1.3-1c.8-1 2-1.7 3.6-1.7 2.4 0 3.7 1.4 3.7 3.3v5.8h-1.8v-1c-.6.8-1.7 1.3-2.8 1.3-1.8 0-3-1-3-2.5m3.3 1c1.1 0 2-.5 2.5-1.4V17l-2.4.4c-1.1.2-1.6.7-1.6 1.3q.15 1.2 1.5 1.2m6.8-7.5h1.8v.9c.7-.7 1.5-1.2 2.8-1.2 1.9 0 3.4 1.3 3.4 3.8v5.3h-1.8V16c0-1.4-.8-2.2-2-2.2s-1.9.7-2.4 1.5v5.9h-1.8zm17.2 6.2 1.4 1.1c-.8 1.1-2.1 1.8-3.7 1.8-2.9 0-4.8-2.2-4.8-4.7s1.8-4.7 4.8-4.7c1.6 0 2.9.7 3.7 1.8L91.7 15c-.5-.7-1.3-1.2-2.3-1.2-1.7 0-2.9 1.3-2.9 3s1.2 3 2.9 3c1 0 1.8-.5 2.3-1.2m7.3 2.9c-3 0-4.8-2.2-4.8-4.7 0-2.6 1.7-4.7 4.5-4.7 2.4 0 4 1.7 4 3.9 0 .4-.1.8-.1 1.1H96c.1 1.9 1.3 2.9 3 2.9 1.1 0 2-.5 2.5-1.2l1.3 1c-.8 1-2.1 1.7-3.8 1.7m-2.9-5.9h4.7c0-1.1-.8-2.1-2.2-2.1-1.3 0-2.2.8-2.5 2.1m-47.4 9h9.8v1.8h-3.9v10.4h-2V26.4h-3.9zM59.4 28h1.8v1c.6-.7 1.4-1.2 2.5-1.2.3 0 .5.1.8.1v1.8c-.3-.1-.6-.1-.9-.1-1.1 0-1.8.6-2.3 1.3v5.9h-1.8V28zm6 6.5c0-1.3 1-2.3 2.9-2.6l2.8-.5V31c0-1.1-.8-1.7-1.9-1.7-1 0-1.7.4-2.2 1.1l-1.3-1c.8-1 2-1.7 3.6-1.7 2.4 0 3.7 1.4 3.7 3.3v5.8h-1.8v-1c-.6.8-1.7 1.3-2.8 1.3-1.8 0-3-1-3-2.6m3.3 1.1c1.1 0 2-.5 2.5-1.4v-1.5l-2.4.4c-1.1.2-1.6.7-1.6 1.3 0 .7.6 1.2 1.5 1.2m7.6-7.6 2.6 6.8 2.6-6.8h1.9l-3.3 8.8h-2.4L74.4 28zm8.1 6.5c0-1.3 1-2.3 2.9-2.6l2.8-.5V31c0-1.1-.8-1.7-1.9-1.7-1 0-1.7.4-2.2 1.1l-1.3-1c.8-1 2-1.7 3.6-1.7 2.4 0 3.7 1.4 3.7 3.3v5.8h-1.8v-1c-.6.8-1.7 1.3-2.8 1.3-1.9 0-3-1-3-2.6m3.2 1.1c1.1 0 2-.5 2.5-1.4v-1.5l-2.4.4c-1.1.2-1.6.7-1.6 1.3.1.7.6 1.2 1.5 1.2m7.1-7.6h1.8v8.8h-1.8zm4.7-4.3h1.8v13.1h-1.8zm-4.9 1.6c0-.6.5-1.1 1.1-1.1s1.1.5 1.1 1.1-.5 1.1-1.1 1.1-1.1-.5-1.1-1.1" class="st0"/></svg>

<svg xmlns="http://www.w3.org/2000/svg" xml:space="preserve" id="logo" x="0px" y="0px" viewBox="0 0 117 46"><style>.st0{fill:#283276}.st1{fill:#f29fc5}.st2{fill:#008ecf}.st4{fill:#ffe000}</style><path d="M40.9,32.6c0,2.1-1.7,3.9-3.9,3.9c-2.1,0-3.9-1.7-3.9-3.9c0-2.1,1.7-3.9,3.9-3.9C39.2,28.8,40.9,30.5,40.9,32.6" class="st0"/><path d="M15.5,18.2c0,2.1-1.7,3.9-3.9,3.9s-3.9-1.7-3.9-3.9c0-2.1,1.7-3.9,3.9-3.9S15.5,16.1,15.5,18.2" class="st1"/><path d="M33.7,28.4c0,2.1-1.7,3.9-3.9,3.9S26,30.5,26,28.4c0-2.1,1.7-3.9,3.9-3.9S33.7,26.3,33.7,28.4" class="st2"/><path d="M24.3,33.1c0,2.1-1.7,3.9-3.9,3.9s-3.9-1.7-3.9-3.9c0-2.1,1.7-3.9,3.9-3.9S24.3,30.9,24.3,33.1" class="st1"/><path d="M24.3 42.1c0 2.1-1.7 3.9-3.9 3.9-2.1 0-3.9-1.7-3.9-3.9 0-2.1 1.7-3.9 3.9-3.9C22.6 38.3 24.3 40 24.3 42.1M40.9 13.4c0 2.1-1.7 3.9-3.9 3.9-2.1 0-3.9-1.7-3.9-3.9 0-2.1 1.7-3.9 3.9-3.9C39.2 9.6 40.9 11.3 40.9 13.4M33.7 18.2c0 2.1-1.7 3.9-3.9 3.9S26 20.4 26 18.2c0-2.1 1.7-3.9 3.9-3.9S33.7 16.1 33.7 18.2M15 28.7c0 2.1-1.7 3.9-3.9 3.9s-3.9-1.7-3.9-3.9c0-2.1 1.7-3.9 3.9-3.9S15 26.6 15 28.7M7.6 12.6c.5 2.1-.8 4.1-2.9 4.6-2.1.5-4.1-.8-4.6-2.9C-.3 12.2 1 10.1 3 9.7 5.1 9.2 7.2 10.5 7.6 12.6" class="st0"/><path d="M7.3 20.9c-.2 1.2-1.3 2-2.5 1.9-1.2-.2-2-1.3-1.9-2.5.2-1.2 1.3-2 2.5-1.9C6.6 18.6 7.4 19.7 7.3 20.9M29.4 36.8c-.2 1.4-1.5 2.3-2.9 2.1-1.4-.2-2.3-1.5-2.1-2.9.2-1.4 1.5-2.3 2.9-2.1C28.6 34.1 29.5 35.4 29.4 36.8M36.8 20.8c-.1.8-.9 1.4-1.7 1.3-.8-.1-1.4-.9-1.3-1.7.1-.8.9-1.4 1.7-1.3C36.4 19.2 36.9 20 36.8 20.8M21.8 13.7c-.2 1.2-1.3 2-2.5 1.9-1.2-.2-2-1.3-1.9-2.5.2-1.2 1.3-2 2.5-1.9C21.2 11.4 22 12.5 21.8 13.7" style="fill:#e1000f"/><path d="M28.1,10.8c-0.2,1.2-1.3,2-2.5,1.9c-1.2-0.2-2-1.3-1.9-2.5c0.2-1.2,1.3-2,2.5-1.9C27.5,8.5,28.3,9.6,28.1,10.8" class="st1"/><path d="M13.9 34.9c-.2 1.2-1.3 2-2.5 1.9-1.2-.2-2-1.3-1.9-2.5.2-1.2 1.3-2 2.5-1.9C13.2 32.6 14 33.8 13.9 34.9M35.4 25.1c-.2 1.2-1.3 2-2.5 1.9-1.2-.2-2-1.3-1.9-2.5.2-1.2 1.3-2 2.5-1.9C34.8 22.8 35.6 23.9 35.4 25.1" class="st4"/><path d="M32.9,35.3c0.6,1,0.3,2.4-0.7,3c-1,0.6-2.4,0.3-3-0.7c-0.6-1-0.3-2.4,0.7-3C30.9,33.9,32.3,34.3,32.9,35.3" class="st0"/><path d="M16.2,9.5c-0.2,1.2-1.3,2-2.5,1.9c-1.2-0.2-2-1.3-1.9-2.5c0.2-1.2,1.3-2,2.5-1.9C15.5,7.2,16.3,8.3,16.2,9.5" class="st4"/><path d="M24.5 4c0 2.2-1.8 4-4 4-2.2 0-4-1.8-4-4 0-2.2 1.8-4 4-4C22.7 0 24.5 1.8 24.5 4M7.7 32.6c0 2.1-1.7 3.9-3.9 3.9S0 34.7 0 32.6c0-2.1 1.7-3.9 3.9-3.9S7.7 30.5 7.7 32.6M26.7 22.2c0 3.7-3 6.7-6.7 6.7-3.7 0-6.7-3-6.7-6.7 0-3.7 3-6.7 6.7-6.7C23.7 15.5 26.7 18.5 26.7 22.2" class="st2"/><path d="M50 8.9 56.8 8.9 56.8 10.6 52 10.6 52 14.1 56.1 14.1 56.1 15.8 52 15.8 52 21.1 50 21.1zM58.4 12.4h1.8v1c.6-.7 1.4-1.2 2.5-1.2.3 0 .5.1.8.1v1.8c-.3-.1-.6-.1-.9-.1-1.1 0-1.8.6-2.3 1.3v5.9h-1.8V12.4zM64.4 18.9c0-1.3 1-2.3 2.9-2.6l2.8-.5v-.5c0-1.1-.8-1.7-1.9-1.7-1 0-1.7.4-2.2 1.1l-1.3-1c.8-1 2-1.7 3.6-1.7 2.4 0 3.7 1.4 3.7 3.3v5.8h-1.8v-1c-.6.8-1.7 1.3-2.8 1.3C65.6 21.4 64.4 20.4 64.4 18.9M67.7 19.9c1.1 0 2-.5 2.5-1.4v-1.5l-2.4.4c-1.1.2-1.6.7-1.6 1.3C66.3 19.5 66.8 19.9 67.7 19.9M74.5 12.4h1.8v.9c.7-.7 1.5-1.2 2.8-1.2 1.9 0 3.4 1.3 3.4 3.8v5.3h-1.8v-5.2c0-1.4-.8-2.2-2-2.2-1.2 0-1.9.7-2.4 1.5v5.9h-1.8V12.4zM91.7 18.6l1.4 1.1c-.8 1.1-2.1 1.8-3.7 1.8-2.9 0-4.8-2.2-4.8-4.7s1.8-4.7 4.8-4.7c1.6 0 2.9.7 3.7 1.8l-1.4 1.1c-.5-.7-1.3-1.2-2.3-1.2-1.7 0-2.9 1.3-2.9 3 0 1.7 1.2 3 2.9 3C90.4 19.8 91.2 19.3 91.7 18.6M99 21.5c-3 0-4.8-2.2-4.8-4.7 0-2.6 1.7-4.7 4.5-4.7 2.4 0 4 1.7 4 3.9 0 .4-.1.8-.1 1.1H96c.1 1.9 1.3 2.9 3 2.9 1.1 0 2-.5 2.5-1.2l1.3 1C102 20.8 100.7 21.5 99 21.5M96.1 15.6h4.7c0-1.1-.8-2.1-2.2-2.1C97.3 13.5 96.4 14.3 96.1 15.6M48.7 24.6 58.5 24.6 58.5 26.4 54.6 26.4 54.6 36.8 52.6 36.8 52.6 26.4 48.7 26.4zM59.4 28h1.8v1c.6-.7 1.4-1.2 2.5-1.2.3 0 .5.1.8.1v1.8c-.3-.1-.6-.1-.9-.1-1.1 0-1.8.6-2.3 1.3v5.9h-1.8V28zM65.4 34.5c0-1.3 1-2.3 2.9-2.6l2.8-.5V31c0-1.1-.8-1.7-1.9-1.7-1 0-1.7.4-2.2 1.1l-1.3-1c.8-1 2-1.7 3.6-1.7 2.4 0 3.7 1.4 3.7 3.3v5.8h-1.8v-1c-.6.8-1.7 1.3-2.8 1.3C66.6 37.1 65.4 36.1 65.4 34.5M68.7 35.6c1.1 0 2-.5 2.5-1.4v-1.5l-2.4.4c-1.1.2-1.6.7-1.6 1.3C67.2 35.1 67.8 35.6 68.7 35.6M76.3 28 78.9 34.8 81.5 28 83.4 28 80.1 36.8 77.7 36.8 74.4 28zM84.4 34.5c0-1.3 1-2.3 2.9-2.6l2.8-.5V31c0-1.1-.8-1.7-1.9-1.7-1 0-1.7.4-2.2 1.1l-1.3-1c.8-1 2-1.7 3.6-1.7 2.4 0 3.7 1.4 3.7 3.3v5.8h-1.8v-1c-.6.8-1.7 1.3-2.8 1.3C85.5 37.1 84.4 36.1 84.4 34.5M87.6 35.6c1.1 0 2-.5 2.5-1.4v-1.5l-2.4.4c-1.1.2-1.6.7-1.6 1.3C86.2 35.1 86.7 35.6 87.6 35.6M94.7 28H96.5V36.8H94.7zM99.4 23.7H101.2V36.8H99.4zM94.5 25.3c0-.6.5-1.1 1.1-1.1.6 0 1.1.5 1.1 1.1 0 .6-.5 1.1-1.1 1.1C95 26.4 94.5 25.9 94.5 25.3" class="st0"/></svg>
